!!!OTL: Banks of Newfoundland (a)
!!!ONM: 103.
**kern
*clefG2
*k[b-]
*F:
*M4/4
*MM80
{4c
=1
4.f
8g
4a
4f
=2
4.a
8b-
4cc}
{(8cc
8a)
=3
4f
4d
4c
4d
=4
2.c}
{4f
=5
4.c
8c
4f
4c
=6
4.a
8b-
4cc}
{(8cc
8a)
=7
4f
4d
4c
4c
=8
2.c}
{(8f
8d)
=9
4c
4c
4.cc
8dd
=10
4b-
4a
4g}
{(8f
8d)
=11
4c
4c
4b-
4a
=12
2g
4r}
{8f
8c
=13
4c
8c
8c
4f
4g
=14
(4.a
8b-)}
{4cc
8cc
8a
=15
4f
4d
4c
4c
=16
2.c}
==
*-
!!!CNT: Folksongs of Maritime Canada
!!!MRD: 1928///-1932///
!!!OCL: Helen Creighton
!!!YOR: Songs and Ballads from Nova Scotia
!!!PPR: J.M. Dent & Sons, Limited
!!!PPP: Toronto, Canada
!!!PDT: 1932///
!!!reprint: Dover Publications, 1992: ISBN 0-486-21703-5
!!!ENC1: Craig Stuart Sapp (music and bibliographic data)                       
!!!ENC2: Marcus Pearce (phrase markings and key designations)                   
!!!ENC3: Darrell Conklin (phrase markings and key designations)   
!!!END: 2002/04/10/
!!!EEV: 2004/06/05
!!!MPN: Mr. Richard Hartlan
!!!PPG: 221
!!!EFL: 104/152
!!!ARE: Canada; Nova Scotia
!!!verses: 6
!!!VTS: 1836696223
